bw.svg

<svg width="182" height="218" viewBox="0 0 182 218" fill="none" xmlns="http://www.w3.org/2000/svg">
<path d="M179.304 2.68965C177.498 0.887307 175.358 0 172.913 0H9.08607C6.61311 0 4.50136 0.887307 2.69526 2.68965C0.889156 4.49199 0 6.62707 0 9.06716V118.067C0 126.192 1.58381 134.26 4.75144 142.274C7.91906 150.26 11.8647 157.358 16.5606 163.569C21.2564 169.753 26.8414 175.798 33.3434 181.676C39.8454 187.554 45.8472 192.407 51.3211 196.289C56.8227 200.171 62.5467 203.831 68.5207 207.297C74.4947 210.763 78.746 213.092 81.2467 214.312C83.7475 215.532 85.7759 216.503 87.2763 217.14C88.4156 217.695 89.6382 218 90.9719 218C92.3056 218 93.5282 217.723 94.6675 217.14C96.1957 216.475 98.1963 215.532 100.725 214.312C103.226 213.092 107.477 210.735 113.451 207.297C119.425 203.831 125.149 200.171 130.651 196.289C136.152 192.407 142.154 187.527 148.656 181.676C155.158 175.798 160.743 169.78 165.439 163.569C170.135 157.358 174.053 150.287 177.248 142.274C180.416 134.288 181.999 126.219 181.999 118.067V9.09489C182.027 6.62707 181.11 4.49199 179.304 2.68965ZM158.187 119.093C158.187 158.551 90.9997 192.545 90.9997 192.545V23.3472H158.187C158.187 23.3472 158.187 79.6357 158.187 119.093Z" fill="#175DDC"/>
</svg>

<?xml version="1.0" encoding="UTF-8"?>
<svg fill="none" viewBox="0 0 182 218" xmlns="http://www.w3.org/2000/svg">
<path d="m179.3 2.6896c-1.806-1.8023-3.946-2.6896-6.391-2.6896h-163.83c-2.473 0-4.5847 0.88731-6.3908 2.6896-1.8061 1.8023-2.6953 3.9374-2.6953 6.3775v109c0 8.125 1.5838 16.193 4.7514 24.207 3.1676 7.986 7.1133 15.084 11.809 21.295 4.6958 6.184 10.281 12.229 16.783 18.107s12.504 10.731 17.978 14.613c5.5016 3.882 11.226 7.542 17.2 11.008s10.225 5.795 12.726 7.015c2.5008 1.22 4.5292 2.191 6.0296 2.828 1.1393 0.555 2.3619 0.86 3.6956 0.86s2.5563-0.277 3.6956-0.86c1.5282-0.665 3.5288-1.608 6.0575-2.828 2.501-1.22 6.752-3.577 12.726-7.015 5.974-3.466 11.698-7.126 17.2-11.008 5.501-3.882 11.503-8.762 18.005-14.613 6.502-5.878 12.087-11.896 16.783-18.107s8.614-13.282 11.809-21.295c3.168-7.986 4.751-16.055 4.751-24.207v-108.97c0.028-2.4678-0.889-4.6029-2.695-6.4052zm-21.117 116.4c0 39.458-67.187 73.452-67.187 73.452v-169.2h67.187v95.746z" fill="#175DDC"/>
</svg>
